X:1
T:Title
%%score { ( 1 3 ) | ( 2 4 ) }
L:1/8
M:4/4
K:Ab
V:1 treble nm="Grand Piano"
V:3 treble 
V:2 bass 
V:4 bass 
V:1
 z4 z2[Q:1/4=100] [CE]2 | [Ec]3 [Ec] [DB]2 [CA]2 | [CE]3 [DF] [CE]2 E2 | d3 d c2 B2 | c6 [Ec]2 | %5
 [Ee]3 [Ee] [Ed]2 [Ec]2 | [FB]2 [Fc]2 [Fd]2 [FB]2 | A3 c c2 B2 | [CA]6 [CE]2 | %9
 [Ec]3 [Ec] [DB]2 [CA]2 |[M:3/4] [CE]3 [DF] [CE]2 |[M:1/4] [CE]2 |[M:4/4] [Ec]3 [Ec] [=DB]2 [Dc]2 | %13
 B6 z2 | [Ee]3 [Ee] [Ed]2 [Ec]2 | [FB]2 [Fc]2 [Fd]2 [FB]2 | [EA]3 [Ac] [Ac]2 [EB]2 | %17
[M:3/4] [CEA]6 |] %18
V:2
 z4 z2 [A,,A,]2 | [A,,A,]3 [A,,A,] [A,,E,]2 [A,,E,]2 | [A,,A,]3 [A,,A,] [A,,A,]2 [C,A,]2 | %3
 [E,G,E]3 [E,B,E] [E,A,E]2 [E,G,E]2 | [A,E]6 [A,,A,]2 | [C,A,]3 [C,A,] [B,,G,]2 [A,,A,]2 | %6
 [D,A,]2 [C,=A,]2 [B,,B,]2 [D,B,]2 | [E,CE]3 [E,A,E] [E,A,E]2 [E,G,D]2 | [A,,A,]6 [A,,A,]2 | %9
 [A,,A,]3 [A,,A,] [A,,E,]2 [A,,E,]2 |[M:3/4] [A,,A,]3 [A,,A,] [A,,A,]2 |[M:1/4] [A,,A,]2 | %12
[M:4/4] [A,,A,]3 [A,,A,] [B,,F,]2 [B,,A,]2 | [G,E]2 z2 z4 | [C,A,]3 [C,A,] [B,,G,]2 [A,,A,]2 | %15
 [D,A,]2 [C,=A,]2 [B,,B,]2 [D,B,]2 | [E,C]3 [E,A,E] [E,A,E]2 [E,G,D]2 |[M:3/4] [A,,A,]6 |] %18
V:3
 x8 | x8 | x8 | x8 | x8 | x8 | x8 | x8 | x8 | x8 |[M:3/4] x6 |[M:1/4] x2 |[M:4/4] x8 | %13
 z2 F2 G2 E2 | x8 | x8 | x8 |[M:3/4] x6 |] %18
V:4
 x8 | x8 | x8 | x8 | x8 | x8 | x8 | x8 | x8 | x8 |[M:3/4] x6 |[M:1/4] x2 |[M:4/4] x8 | %13
 E,2- [E,-A,]2 [E,B,]2 [D,G,]2 | x8 | x8 | x8 |[M:3/4] x6 |] %18

